!!!COM: Haydn, Franz Joseph
!!!OTL: String Quartet in E-flat Major
!!!OPS: Opus 50
!!!ONM: No. 3
!!!OMD: Menuetto: Allegretto
!!!OMV: 3
!!!SCT: H III:46
!!!SCA: Thematisch-bibliographisches Werkevererzeichnis (A. van Hoboken)
!!!YOR: Trautwein Edition
!!!ENC: Frances Bennion
!!!CDT: 1732/3/31/-1809/5/31/
!!!CNT: Oesterreich
!!!YEC: Copyright (c) 1994, 2000 Center for Computer Assisted Research in the Humanities
!!!YEM: Rights to all derivative editions reserved.
!!!YEM: Refer to licensing agreement for further details.
!!!YEN: United States of America
**kern	**kern	**kern	**kern
*k[b-e-a-]	*k[b-e-a-]	*k[b-e-a-]	*k[b-e-a-]
*E-:	*E-:	*E-:	*E-:
*clefF4	*clefC3	*clefG	*clefG
*M3/4	*M3/4	*M3/4	*M3/4
2r	2r	2r	2r
4r	4r	4G	4e-
=1	=1	=1	=1
2E-	2B-	4G	4e-
.	.	4e-	4g
4r	4r	4e-	4g
=2	=2	=2	=2
2E-	2B-	4e-	4g
.	.	4g	4b-
4e-	4b-	4g	4ee-
=3	=3	=3	=3
2f	2b-	2a-	4ee-
.	.	.	4dd
4a-	4dd	4b-	4ff
=4	=4	=4	=4
4a-	4dd	4b-	4ff
2r	2r	2r	4r
.	.	.	4bb-
=5	=5	=5	=5
2.r	2.a-	2.dd	4bb-
.	.	.	4ff
.	.	.	4bb-
=6	=6	=6	=6
2.r	2.g	2.dd-	4bb-
.	.	.	4ee
.	.	.	4bb-
=7	=7	=7	=7
2.F	2e-	2cc	4bb-
.	.	.	4aa
.	4A	4ee-	4ccc
=8	=8	=8	=8
2B-	4B-	4ee-	2ff
.	4f	4dd	.
4BB-	4d	4ff	4aa-
=9	=9	=9	=9
2E-	2e-	2b-	4aa-
.	.	.	4gg
4G	4B-	4e-	4bb-
=10	=10	=10	=10
2.A-	4c	4e-	4cc
.	4A-	4cc	4aa-
.	4A-	4a-	4ff
=11	=11	=11	=11
2B-	2B-	4f	4dd
.	.	4d	4b-
4EE-	4E-	4B- 4g	4g 4ee-
=12	=12	=12	=12
4EE-	4E-	4e- 4G	4ee- 4g
2r	2r	2r	4r
.	.	.	4b-
=13	=13	=13	=13
4r	4r	4r	4b-
4d	4f	4a-	4cc-
4d	4f	4a-	4cc-
=14	=14	=14	=14
2d	2f	2a-	2cc-
4r	4r	4r	4bb-
=15	=15	=15	=15
2.r	4r	4r	4bb-
.	4dd	4ff	4aa-
.	4dd	4ff	4aa-
=16	=16	=16	=16
2.r	2dd	2.ff	2aa-
.	4r	.	4b-
=17	=17	=17	=17
4r	4r	4r	4b-
4d-	4f	4a-	4cc-
4d-	4f	4a-	4cc-
=18	=18	=18	=18
2d-	2f	2a-	2cc-
4r	4r	4cc-	4aa-
=19	=19	=19	=19
4r	4r	4cc-	4aa-
4G-	4d-	4b-	4gg-
4G-	4d-	4b-	4gg-
=20	=20	=20	=20
2.G-	[2.d-	2.b-	2gg-
.	.	.	4dd-
=21	=21	=21	=21
2.BB-	2.d-]	[2.g-	4dd-
.	.	.	4b-
.	.	.	4b-
=22	=22	=22	=22
2.C-	2.e-	2.g-]	4b-
.	.	.	4a-
.	.	.	4a-
=23	=23	=23	=23
2.D-	2A-	2.f	4cc-
.	.	.	4a-
.	4c-	.	4f
=24	=24	=24	=24
2E-	4c-	4f	4f
.	4B-	4g-	4g-
4r	4r	4g-	4ddd-
=25	=25	=25	=25
2.BB-	2.d-	[2.g-	4ddd-
.	.	.	4bb-
.	.	.	4bb-
=26	=26	=26	=26
2.C-	2.e-	2.g-]	4bb-
.	.	.	4aa-
.	.	.	4aa-
=27	=27	=27	=27
2.D-	2.A-	4f	4ccc-
.	.	4a-	4aa-
.	.	4cc-	4ff
=28	=28	=28	=28
2GG-	2G-	4b	4aa-
.	.	4b-	4gg-
4r	4r	4gg-	4bb-
=29	=29	=29	=29
2.r	2r	4gg-	4bb-
.	.	4ff	4aa-
.	4cc-	4ff	4aa-
=30	=30	=30	=30
2.r	4cc-	2ff	2aa-
.	4b-	.	.
.	4b-	4ff	4aa-
=31	=31	=31	=31
2.r	2b-	4ff	4aa-
.	.	4ee-	4gg-
.	4b-	4ee-	4gg-
=32	=32	=32	=32
2.r	4b-	2ee-	2gg-
.	4a	.	.
.	4a	4ee-	4gg-
=33	=33	=33	=33
2r	4a	4ee-	4gg-
.	4b-	4dd	4ff
4BB-	4b-	4dd	4ff
=34	=34	=34	=34
4BB-	4b-	2dd	2ff
4C-	4r	.	.
4C-	4e-	4ee-	4aa
=35	=35	=35	=35
4C-	4e-	4ee-	4aa
4BB-	4f	4dd	4bb-
4BB-	4f	4dd	4bb-
=36	=36	=36	=36
4BB-	4f	4dd	4bb-
2r	2r	4r	4r
.	.	4G	4e-
=37	=37	=37	=37
2E-	2B-	4G	4e-
.	.	4e-	4g
4r	4r	4e-	4g
=38	=38	=38	=38
2E-	2B-	4e-	4g
.	.	4g	4b-
4e-	4b-	4g	4ee-
=39	=39	=39	=39
2f	2b-	2a-	4ee-
.	.	.	4dd
4a-	4dd	4b-	4ff
=40	=40	=40	=40
4a-	4dd	4b-	4ff
2r	2r	2r	4r
.	.	.	4bb-
=41	=41	=41	=41
2.r	2.a-	2.dd	4bb-
.	.	.	4ff
.	.	.	4bb-
=42	=42	=42	=42
2.r	2.g	2.dd-	4bb-
.	.	.	4ee
.	.	.	4bb-
=43	=43	=43	=43
2.F	2e-	2cc	4bb-
.	.	.	4aa
.	4A	4ee-	4ccc
=44	=44	=44	=44
2B-	4B-	4ee-	2ff
.	4f	4dd	.
4BB-	4d	4ff	4aa-
=45	=45	=45	=45
2E-	2e-	2b-	4aa-
.	.	.	4gg
4G	4B-	4e-	4bb-
=46	=46	=46	=46
2.A-	4c	4e-	4cc
.	2r	4cc	4aa-
.	.	4a-	4ff
=47	=47	=47	=47
2B-	2.r	4f	4dd
.	.	4d	4b-
4B-	.	4b-	4dd
=48	=48	=48	=48
4B	2.r	[2.a	[2.ee-
4c	.	.	.
4c	.	.	.
=49	=49	=49	=49
2c	2.r	2a]	2ee-]
4c	.	4a	4ee-
=50	=50	=50	=50
4c#	2.r	[2.a-	[2.ff
4d	.	.	.
4d	.	.	.
=51	=51	=51	=51
2d	2.r	2a-]	2ff]
4r	.	4r	4b-
=52	=52	=52	=52
2.r	2.f	2.a-	4b-
.	.	.	4d
.	.	.	4b-
=53	=53	=53	=53
2r	2.e-	2.g	4b-
.	.	.	4e-
4BB-	.	.	4r
=54	=54	=54	=54
4BB-	2.d	2.ff	2.aa-
4DD	.	.	.
4BB-	.	.	.
=55	=55	=55	=55
4BB-	2.e-	2ee-	2.gg
4EE-	.	.	.
4E-	.	4b-	.
=56	=56	=56	=56
4AA-	4c	4a-	4ff
4BB-	4B-	4g	4ee-
4BB-	4A-	4f	4dd
=57	=57	=57	=57
4EE-	4G	4e-	4ee-
2r	4r	4r	4r
.	4g	4b-	4b-
=58	=58	=58	=58
4E-	8g	8b-	4b-
.	8e-	8g	.
2r	8a-	8cc	4ee-
.	8g	8b-	.
.	8a-	8cc	4ee-
.	8g	8b-	.
=59	=59	=59	=59
2.r	8a-	8cc	2ee-
.	8g	8b-	.
.	8cc	8ee-	.
.	8b-	8dd	.
.	8a-	8cc	4ee-
.	8g	8b-	.
=60	=60	=60	=60
4BB-	8f	8a-	4dd
.	8g	8b-	.
2r	8a-	8cc	4ff
.	8g	8b-	.
.	8f	8a-	4ff
.	8e-	8g	.
=61	=61	=61	=61
2.r	8d	8f	8ff
.	8c	8e-	8gg
.	8B-	8d	8aa-
.	8c	8e-	8gg
.	8d	8f	8ff
.	8e-	8g	8ee-
=62	=62	=62	=62
4BB-	8f	8a-	8dd
.	8g	8b-	8ee-
2r	8a-	8cc	8ff
.	8g	8b-	8ee-
.	8f	8a-	8dd
.	8e-	8g	8cc
=63	=63	=63	=63
4BB-	8d	8f	4b-
.	8c	8e-	.
2r	8B-	8d	4cc
.	8A-	8c	.
.	8G	8B-	4dd
.	8F	8A-	.
=64	=64	=64	=64
4EE-	8E-	8G	8ee-
.	8G	8B-	8b-
4r	8B-	8e-	8g
.	8e-	8g	8b-
4BB-	8f	8f	8a-
.	8a-	8d	8f
=65	=65	=65	=65
4E-	4g	4e-	4e-
2r	4r	4r	4r
.	4e-	4g	4cc
=66	=66	=66	=66
2.r	4d	4f	8cc
.	.	.	8b
.	4f	4a-	8dd
.	.	.	8b
.	4e-	4g	8cc
.	.	.	8ee-
=67	=67	=67	=67
2.r	2B	2.g	8ee-
.	.	.	8dd
.	.	.	8ff
.	.	.	8dd
.	4c	.	8ee-
.	.	.	8gg
=68	=68	=68	=68
2.r	2e-	[2.f	8b-
.	.	.	8a
.	.	.	8cc
.	.	.	8a
.	4d	.	8b-
.	.	.	8dd
=69	=69	=69	=69
2.r	2A	2f]	8dd
.	.	.	8cc
.	.	.	8ee-
.	.	.	8cc
.	8B-	4r	8dd
.	8c	.	8ee-
=70	=70	=70	=70
4BB-	8d	2.r	8ff
.	8B-	.	8dd
2r	8e-	.	8gg
.	8d	.	8ff
.	8e-	.	8gg
.	8d	.	8ff
=71	=71	=71	=71
4BB-	8b-	2.r	8ddd
.	8a	.	8ccc
2r	8g	.	8bb-
.	8f	.	8aa
.	8e-	.	8gg
.	8d	.	8ff
=72	=72	=72	=72
4E-	8g	2.r	8ee-
.	8f	.	8dd
4r	8e-	.	8cc
.	8d	.	8b-
4F	8c	.	8a
.	8A	.	8cc
=73	=73	=73	=73
8B-	4B-	2r	4b-
8A	.	.	.
8B-	4r	.	2r
8A	.	.	.
8B-	8g	8b-	.
8c	8f	8a-	.
=74	=74	=74	=74
8d-	2e	2g	2.r
8c	.	.	.
8d-	.	.	.
8c	.	.	.
8A-	4f	4a-	.
8F	.	.	.
=75	=75	=75	=75
8c-	2d	2f	2.r
8B-	.	.	.
8c-	.	.	.
8B-	.	.	.
8G	4e-	4g	.
8E-	.	.	.
=76	=76	=76	=76
8A-	8c	8f	2.r
8G	8B-	8g	.
8F	8A-	8a-	.
8G	8B-	8g	.
8A-	4c	8f	.
8A	.	8e-	.
=77	=77	=77	=77
8B-	4B-	4d	2r
8c	.	.	.
8B-	4r	4r	.
8A-	.	.	.
8G	4g	4b-	4b-
8F	.	.	.
=78	=78	=78	=78
4E-	8g	8b-	4b-
.	8e-	8g	.
2r	8a-	8cc	4ee-
.	8g	8b-	.
.	8a-	8cc	4ee-
.	8g	8b-	.
=79	=79	=79	=79
2.r	8a-	8cc	2ee-
.	8g	8b-	.
.	8cc	8ee-	.
.	8b-	8dd	.
.	8a-	8cc	4ee-
.	8g	8b-	.
=80	=80	=80	=80
4BB-	8f	8a-	4dd
.	8g	8b-	.
2r	8a-	8cc	4ff
.	8g	8b-	.
.	8f	8a-	4ff
.	8e-	8g	.
=81	=81	=81	=81
2.r	8d	8f	8ff
.	8c	8e-	8gg
.	8B-	8d	8aa-
.	8c	8e-	8gg
.	8d	8f	8ff
.	8e-	8g	8ee-
=82	=82	=82	=82
4BB-	8f	8a-	8dd
.	8g	8b-	8ee-
2r	8a-	8cc	8ff
.	8g	8b-	8ee-
.	8f	8a-	8dd
.	8e-	8g	8cc
=83	=83	=83	=83
4BB-	8d	8f	8b-
.	8c	8e-	8a-
2r	8B-	8d	8g
.	8A-	8c	8f
.	8G	8B-	8e-
.	8F	8A-	8d
=84	=84	=84	=84
4EE-	8E-	8G	8e-
.	8G	8B-	8b-
4r	8B-	8e-	8g
.	8e-	8g	8b-
4BB-	8f	8f	8a-
.	8a-	8d	8f
=85	=85	=85	=85
4E-	4g	4e-	4e-
2r	2r	2r	2r
==	==	==	==
*-	*-	*-	*-
!!!RWG1: This file contains only pitch and duration data.
!!!RWG2: Transposing instruments are not transposed.
!!!RWG3: Spines may have incompatible meters.
!!!RWG4: Durations of rests and tied notes may be interpreted.
!!!RWG: Key is interpreted using the Humdrum key tool.
!!!GTL: 6 Quartetti ("Prussian")
!!!AFT: stage1
!!!END: 1997/04/15
!!!KEY: 1685429391
!!!EMD: Converted from MuseData to Humdrum Dec 16, 2000, by Andreas Kornstaedt using muse2kern.
!!!EMD: Manual editing by Craig Sapp, Nov 2001
